images/50650747.svg

<?xml version="1.0" encoding="UTF-8"?>
<svg xmlns="http://www.w3.org/2000/svg" xmlns:xlink="http://www.w3.org/1999/xlink" width="300pt" height="300pt" viewBox="0 0 300 300" version="1.1">
<defs>
<g>
<symbol overflow="visible" id="glyph0-0">
<path style="stroke:none;" d="M 0.453125 1.59375 L 0.453125 -6.34375 L 4.953125 -6.34375 L 4.953125 1.59375 Z M 0.953125 1.09375 L 4.453125 1.09375 L 4.453125 -5.84375 L 0.953125 -5.84375 Z M 0.953125 1.09375 "/>
</symbol>
<symbol overflow="visible" id="glyph0-1">
<path style="stroke:none;" d="M 3.546875 -5.953125 C 2.898438 -5.953125 2.382812 -5.710938 2 -5.234375 C 1.625 -4.753906 1.4375 -4.101562 1.4375 -3.28125 C 1.4375 -2.445312 1.625 -1.789062 2 -1.3125 C 2.382812 -0.832031 2.898438 -0.59375 3.546875 -0.59375 C 4.191406 -0.59375 4.703125 -0.832031 5.078125 -1.3125 C 5.453125 -1.789062 5.640625 -2.445312 5.640625 -3.28125 C 5.640625 -4.101562 5.453125 -4.753906 5.078125 -5.234375 C 4.703125 -5.710938 4.191406 -5.953125 3.546875 -5.953125 Z M 3.546875 -6.6875 C 4.460938 -6.6875 5.195312 -6.375 5.75 -5.75 C 6.300781 -5.132812 6.578125 -4.3125 6.578125 -3.28125 C 6.578125 -2.238281 6.300781 -1.410156 5.75 -0.796875 C 5.195312 -0.179688 4.460938 0.125 3.546875 0.125 C 2.617188 0.125 1.878906 -0.179688 1.328125 -0.796875 C 0.773438 -1.410156 0.5 -2.238281 0.5 -3.28125 C 0.5 -4.3125 0.773438 -5.132812 1.328125 -5.75 C 1.878906 -6.375 2.617188 -6.6875 3.546875 -6.6875 Z M 3.546875 -6.6875 "/>
</symbol>
<symbol overflow="visible" id="glyph0-2">
<path style="stroke:none;" d="M 0.890625 -6.5625 L 2.078125 -6.5625 L 4.984375 -1.078125 L 4.984375 -6.5625 L 5.84375 -6.5625 L 5.84375 0 L 4.65625 0 L 1.75 -5.484375 L 1.75 0 L 0.890625 0 Z M 0.890625 -6.5625 "/>
</symbol>
<symbol overflow="visible" id="glyph0-3">
<path style="stroke:none;" d="M 0.890625 -6.5625 L 1.765625 -6.5625 L 1.765625 -3.875 L 5 -3.875 L 5 -6.5625 L 5.890625 -6.5625 L 5.890625 0 L 5 0 L 5 -3.125 L 1.765625 -3.125 L 1.765625 0 L 0.890625 0 Z M 0.890625 -6.5625 "/>
</symbol>
<symbol overflow="visible" id="glyph1-0">
<path style="stroke:none;" d="M 0.40625 1.421875 L 0.40625 -5.640625 L 4.40625 -5.640625 L 4.40625 1.421875 Z M 0.84375 0.96875 L 3.953125 0.96875 L 3.953125 -5.1875 L 0.84375 -5.1875 Z M 0.84375 0.96875 "/>
</symbol>
<symbol overflow="visible" id="glyph1-1">
<path style="stroke:none;" d="M 3.6875 -5.015625 L 3.6875 -2.84375 L 5.859375 -2.84375 L 5.859375 -2.171875 L 3.6875 -2.171875 L 3.6875 0 L 3.03125 0 L 3.03125 -2.171875 L 0.84375 -2.171875 L 0.84375 -2.84375 L 3.03125 -2.84375 L 3.03125 -5.015625 Z M 3.6875 -5.015625 "/>
</symbol>
</g>
</defs>
<g id="surface13065">
<rect x="0" y="0" width="300" height="300" style="fill:rgb(100%,100%,100%);fill-opacity:1;stroke:none;"/>
<path style="fill:none;stroke-width:1.2;stroke-linecap:butt;stroke-linejoin:miter;stroke:rgb(100%,0%,0%);stroke-opacity:1;stroke-miterlimit:10;" d="M 83.429688 117.640625 L 84.832031 128.199219 "/>
<path style="fill:none;stroke-width:1.2;stroke-linecap:butt;stroke-linejoin:miter;stroke:rgb(0%,0%,0%);stroke-opacity:1;stroke-miterlimit:10;" d="M 84.832031 128.199219 L 86.230469 138.757812 "/>
<path style="fill:none;stroke-width:1.2;stroke-linecap:butt;stroke-linejoin:miter;stroke:rgb(100%,0%,0%);stroke-opacity:1;stroke-miterlimit:10;" d="M 88.398438 116.980469 L 89.800781 127.539062 "/>
<path style="fill:none;stroke-width:1.2;stroke-linecap:butt;stroke-linejoin:miter;stroke:rgb(0%,0%,0%);stroke-opacity:1;stroke-miterlimit:10;" d="M 89.800781 127.539062 L 91.199219 138.097656 "/>
<path style=" stroke:none;fill-rule:nonzero;fill:rgb(100%,100%,100%);fill-opacity:1;" d="M 81.914062 111.8125 L 89.914062 111.8125 L 89.914062 122.8125 L 81.914062 122.8125 Z M 81.914062 111.8125 "/>
<g style="fill:rgb(100%,0%,0%);fill-opacity:1;">
  <use xlink:href="#glyph0-1" x="81.914062" y="120.475586"/>
</g>
<path style="fill:none;stroke-width:1.2;stroke-linecap:butt;stroke-linejoin:miter;stroke:rgb(0%,0%,0%);stroke-opacity:1;stroke-miterlimit:10;" d="M 88.714844 138.429688 L 108.402344 146.5625 "/>
<path style="fill:none;stroke-width:1.2;stroke-linecap:butt;stroke-linejoin:miter;stroke:rgb(0%,0%,0%);stroke-opacity:1;stroke-miterlimit:10;" d="M 88.714844 138.429688 L 71.824219 151.410156 "/>
<path style="fill:none;stroke-width:1.2;stroke-linecap:butt;stroke-linejoin:miter;stroke:rgb(0%,0%,0%);stroke-opacity:1;stroke-miterlimit:10;" d="M 108.402344 146.5625 L 113.390625 167.273438 "/>
<path style="fill:none;stroke-width:1.2;stroke-linecap:butt;stroke-linejoin:miter;stroke:rgb(0%,0%,0%);stroke-opacity:1;stroke-miterlimit:10;" d="M 113.773438 147.460938 L 117.765625 164.027344 "/>
<path style="fill:none;stroke-width:1.2;stroke-linecap:butt;stroke-linejoin:miter;stroke:rgb(0%,0%,0%);stroke-opacity:1;stroke-miterlimit:10;" d="M 126.554688 135.417969 L 108.402344 146.5625 "/>
<path style="fill:none;stroke-width:1.2;stroke-linecap:butt;stroke-linejoin:miter;stroke:rgb(0%,0%,0%);stroke-opacity:1;stroke-miterlimit:10;" d="M 113.390625 167.273438 L 124.011719 168.097656 "/>
<path style="fill:none;stroke-width:1.2;stroke-linecap:butt;stroke-linejoin:miter;stroke:rgb(0%,0%,100%);stroke-opacity:1;stroke-miterlimit:10;" d="M 124.011719 168.097656 L 134.628906 168.925781 "/>
<path style="fill:none;stroke-width:1.2;stroke-linecap:butt;stroke-linejoin:miter;stroke:rgb(0%,0%,100%);stroke-opacity:1;stroke-miterlimit:10;" d="M 134.628906 168.925781 L 147.613281 185.8125 "/>
<path style="fill:none;stroke-width:1.2;stroke-linecap:butt;stroke-linejoin:miter;stroke:rgb(0%,0%,0%);stroke-opacity:1;stroke-miterlimit:10;" d="M 142.765625 149.238281 L 138.695312 159.082031 "/>
<path style="fill:none;stroke-width:1.2;stroke-linecap:butt;stroke-linejoin:miter;stroke:rgb(0%,0%,100%);stroke-opacity:1;stroke-miterlimit:10;" d="M 138.695312 159.082031 L 134.628906 168.925781 "/>
<path style=" stroke:none;fill-rule:nonzero;fill:rgb(100%,100%,100%);fill-opacity:1;" d="M 131.628906 163.425781 L 138.628906 163.425781 L 138.628906 174.425781 L 131.628906 174.425781 Z M 131.628906 163.425781 "/>
<g style="fill:rgb(0%,0%,100%);fill-opacity:1;">
  <use xlink:href="#glyph0-2" x="131.628906" y="172.088867"/>
</g>
<path style="fill:none;stroke-width:1.2;stroke-linecap:butt;stroke-linejoin:miter;stroke:rgb(0%,0%,100%);stroke-opacity:1;stroke-miterlimit:10;" d="M 147.613281 185.8125 L 158.171875 184.414062 "/>
<path style="fill:none;stroke-width:1.2;stroke-linecap:butt;stroke-linejoin:miter;stroke:rgb(0%,0%,0%);stroke-opacity:1;stroke-miterlimit:10;" d="M 158.171875 184.414062 L 168.730469 183.015625 "/>
<path style="fill:none;stroke-width:1.2;stroke-linecap:butt;stroke-linejoin:miter;stroke:rgb(0%,0%,100%);stroke-opacity:1;stroke-miterlimit:10;" d="M 149.066406 180.566406 L 157.511719 179.445312 "/>
<path style="fill:none;stroke-width:1.2;stroke-linecap:butt;stroke-linejoin:miter;stroke:rgb(0%,0%,0%);stroke-opacity:1;stroke-miterlimit:10;" d="M 157.511719 179.445312 L 165.960938 178.324219 "/>
<path style=" stroke:none;fill-rule:nonzero;fill:rgb(100%,100%,100%);fill-opacity:1;" d="M 144.613281 180.3125 L 151.613281 180.3125 L 151.613281 191.3125 L 144.613281 191.3125 Z M 144.613281 180.3125 "/>
<g style="fill:rgb(0%,0%,100%);fill-opacity:1;">
  <use xlink:href="#glyph0-2" x="144.613281" y="188.975586"/>
</g>
<path style="fill:none;stroke-width:1.2;stroke-linecap:butt;stroke-linejoin:miter;stroke:rgb(0%,0%,0%);stroke-opacity:1;stroke-miterlimit:10;" d="M 168.730469 183.015625 L 172.796875 173.171875 "/>
<path style="fill:none;stroke-width:1.2;stroke-linecap:butt;stroke-linejoin:miter;stroke:rgb(0%,0%,100%);stroke-opacity:1;stroke-miterlimit:10;" d="M 172.796875 173.171875 L 176.863281 163.328125 "/>
<path style="fill:none;stroke-width:1.2;stroke-linecap:butt;stroke-linejoin:miter;stroke:rgb(0%,0%,100%);stroke-opacity:1;stroke-miterlimit:10;" d="M 176.863281 163.328125 L 170.371094 154.882812 "/>
<path style="fill:none;stroke-width:1.2;stroke-linecap:butt;stroke-linejoin:miter;stroke:rgb(0%,0%,0%);stroke-opacity:1;stroke-miterlimit:10;" d="M 170.371094 154.882812 L 163.882812 146.4375 "/>
<path style="fill:none;stroke-width:1.2;stroke-linecap:butt;stroke-linejoin:miter;stroke:rgb(0%,0%,100%);stroke-opacity:1;stroke-miterlimit:10;" d="M 171.59375 164.691406 L 166.398438 157.9375 "/>
<path style="fill:none;stroke-width:1.2;stroke-linecap:butt;stroke-linejoin:miter;stroke:rgb(0%,0%,0%);stroke-opacity:1;stroke-miterlimit:10;" d="M 166.398438 157.9375 L 161.207031 151.183594 "/>
<path style=" stroke:none;fill-rule:nonzero;fill:rgb(100%,100%,100%);fill-opacity:1;" d="M 166.863281 155.828125 L 187.863281 155.828125 L 187.863281 170.828125 L 166.863281 170.828125 Z M 166.863281 155.828125 "/>
<g style="fill:rgb(0%,0%,100%);fill-opacity:1;">
  <use xlink:href="#glyph0-2" x="166.863281" y="167.929688"/>
  <use xlink:href="#glyph0-3" x="173.84082" y="167.929688"/>
</g>
<g style="fill:rgb(0%,0%,100%);fill-opacity:1;">
  <use xlink:href="#glyph1-1" x="180.855469" y="163.046875"/>
</g>
<path style="fill:none;stroke-width:1.2;stroke-linecap:butt;stroke-linejoin:miter;stroke:rgb(0%,0%,0%);stroke-opacity:1;stroke-miterlimit:10;" d="M 163.882812 146.4375 L 167.949219 136.59375 "/>
<path style="fill:none;stroke-width:1.2;stroke-linecap:butt;stroke-linejoin:miter;stroke:rgb(0%,0%,100%);stroke-opacity:1;stroke-miterlimit:10;" d="M 167.949219 136.59375 L 172.015625 126.75 "/>
<path style="fill:none;stroke-width:1.2;stroke-linecap:butt;stroke-linejoin:miter;stroke:rgb(0%,0%,0%);stroke-opacity:1;stroke-miterlimit:10;" d="M 163.882812 146.4375 L 142.765625 149.238281 "/>
<path style="fill:none;stroke-width:1.2;stroke-linecap:butt;stroke-linejoin:miter;stroke:rgb(0%,0%,100%);stroke-opacity:1;stroke-miterlimit:10;" d="M 172.015625 126.75 L 182.574219 125.351562 "/>
<path style="fill:none;stroke-width:1.2;stroke-linecap:butt;stroke-linejoin:miter;stroke:rgb(0%,0%,0%);stroke-opacity:1;stroke-miterlimit:10;" d="M 182.574219 125.351562 L 193.132812 123.953125 "/>
<path style=" stroke:none;fill-rule:nonzero;fill:rgb(100%,100%,100%);fill-opacity:1;" d="M 165.015625 121.25 L 179.015625 121.25 L 179.015625 132.25 L 165.015625 132.25 Z M 165.015625 121.25 "/>
<g style="fill:rgb(0%,0%,100%);fill-opacity:1;">
  <use xlink:href="#glyph0-2" x="165.015625" y="129.913086"/>
  <use xlink:href="#glyph0-3" x="171.993164" y="129.913086"/>
</g>
<path style="fill:none;stroke-width:1.2;stroke-linecap:butt;stroke-linejoin:miter;stroke:rgb(0%,0%,0%);stroke-opacity:1;stroke-miterlimit:10;" d="M 193.132812 123.953125 L 206.117188 140.839844 "/>
<path style="fill:none;stroke-width:1.2;stroke-linecap:butt;stroke-linejoin:miter;stroke:rgb(0%,0%,0%);stroke-opacity:1;stroke-miterlimit:10;" d="M 198.40625 122.585938 L 208.792969 136.097656 "/>
<path style="fill:none;stroke-width:1.2;stroke-linecap:butt;stroke-linejoin:miter;stroke:rgb(0%,0%,0%);stroke-opacity:1;stroke-miterlimit:10;" d="M 201.269531 104.265625 L 193.132812 123.953125 "/>
<path style="fill:none;stroke-width:1.2;stroke-linecap:butt;stroke-linejoin:miter;stroke:rgb(0%,0%,0%);stroke-opacity:1;stroke-miterlimit:10;" d="M 206.117188 140.839844 L 227.234375 138.042969 "/>
<path style="fill:none;stroke-width:1.2;stroke-linecap:butt;stroke-linejoin:miter;stroke:rgb(0%,0%,0%);stroke-opacity:1;stroke-miterlimit:10;" d="M 227.234375 138.042969 L 235.367188 118.355469 "/>
<path style="fill:none;stroke-width:1.2;stroke-linecap:butt;stroke-linejoin:miter;stroke:rgb(0%,0%,0%);stroke-opacity:1;stroke-miterlimit:10;" d="M 223.414062 134.160156 L 229.921875 118.410156 "/>
<path style="fill:none;stroke-width:1.2;stroke-linecap:butt;stroke-linejoin:miter;stroke:rgb(0%,0%,0%);stroke-opacity:1;stroke-miterlimit:10;" d="M 227.234375 138.042969 L 240.214844 154.929688 "/>
<path style="fill:none;stroke-width:1.2;stroke-linecap:butt;stroke-linejoin:miter;stroke:rgb(0%,0%,0%);stroke-opacity:1;stroke-miterlimit:10;" d="M 235.367188 118.355469 L 222.386719 101.464844 "/>
<path style="fill:none;stroke-width:1.2;stroke-linecap:butt;stroke-linejoin:miter;stroke:rgb(0%,0%,0%);stroke-opacity:1;stroke-miterlimit:10;" d="M 222.386719 101.464844 L 201.269531 104.265625 "/>
<path style="fill:none;stroke-width:1.2;stroke-linecap:butt;stroke-linejoin:miter;stroke:rgb(0%,0%,0%);stroke-opacity:1;stroke-miterlimit:10;" d="M 220.933594 106.714844 L 204.039062 108.953125 "/>
<path style="fill:none;stroke-width:1.2;stroke-linecap:butt;stroke-linejoin:miter;stroke:rgb(0%,0%,0%);stroke-opacity:1;stroke-miterlimit:10;" d="M 201.269531 104.265625 L 188.285156 87.375 "/>
<path style="fill:none;stroke-width:1.2;stroke-linecap:butt;stroke-linejoin:miter;stroke:rgb(0%,0%,0%);stroke-opacity:1;stroke-miterlimit:10;" d="M 240.542969 157.414062 L 251.101562 156.015625 "/>
<path style="fill:none;stroke-width:1.2;stroke-linecap:butt;stroke-linejoin:miter;stroke:rgb(100%,0%,0%);stroke-opacity:1;stroke-miterlimit:10;" d="M 251.101562 156.015625 L 261.660156 154.617188 "/>
<path style="fill:none;stroke-width:1.2;stroke-linecap:butt;stroke-linejoin:miter;stroke:rgb(0%,0%,0%);stroke-opacity:1;stroke-miterlimit:10;" d="M 239.886719 152.445312 L 250.445312 151.046875 "/>
<path style="fill:none;stroke-width:1.2;stroke-linecap:butt;stroke-linejoin:miter;stroke:rgb(100%,0%,0%);stroke-opacity:1;stroke-miterlimit:10;" d="M 250.445312 151.046875 L 261.003906 149.648438 "/>
<path style="fill:none;stroke-width:1.2;stroke-linecap:butt;stroke-linejoin:miter;stroke:rgb(0%,0%,0%);stroke-opacity:1;stroke-miterlimit:10;" d="M 240.214844 154.929688 L 236.148438 164.773438 "/>
<path style="fill:none;stroke-width:1.2;stroke-linecap:butt;stroke-linejoin:miter;stroke:rgb(0%,0%,100%);stroke-opacity:1;stroke-miterlimit:10;" d="M 236.148438 164.773438 L 232.082031 174.617188 "/>
<path style=" stroke:none;fill-rule:nonzero;fill:rgb(100%,100%,100%);fill-opacity:1;" d="M 257.332031 146.632812 L 265.332031 146.632812 L 265.332031 157.632812 L 257.332031 157.632812 Z M 257.332031 146.632812 "/>
<g style="fill:rgb(100%,0%,0%);fill-opacity:1;">
  <use xlink:href="#glyph0-1" x="257.332031" y="155.295898"/>
</g>
<path style="fill:none;stroke-width:1.2;stroke-linecap:butt;stroke-linejoin:miter;stroke:rgb(0%,0%,100%);stroke-opacity:1;stroke-miterlimit:10;" d="M 232.082031 174.617188 L 238.570312 183.0625 "/>
<path style="fill:none;stroke-width:1.2;stroke-linecap:butt;stroke-linejoin:miter;stroke:rgb(0%,0%,0%);stroke-opacity:1;stroke-miterlimit:10;" d="M 238.570312 183.0625 L 245.0625 191.507812 "/>
<path style=" stroke:none;fill-rule:nonzero;fill:rgb(100%,100%,100%);fill-opacity:1;" d="M 225.082031 169.117188 L 239.082031 169.117188 L 239.082031 180.117188 L 225.082031 180.117188 Z M 225.082031 169.117188 "/>
<g style="fill:rgb(0%,0%,100%);fill-opacity:1;">
  <use xlink:href="#glyph0-2" x="225.082031" y="177.780273"/>
  <use xlink:href="#glyph0-3" x="232.05957" y="177.780273"/>
</g>
<path style="fill:none;stroke-width:1.2;stroke-linecap:butt;stroke-linejoin:miter;stroke:rgb(0%,0%,0%);stroke-opacity:1;stroke-miterlimit:10;" d="M 245.0625 191.507812 L 264.75 199.640625 "/>
<path style="fill:none;stroke-width:1.2;stroke-linecap:butt;stroke-linejoin:miter;stroke:rgb(0%,0%,0%);stroke-opacity:1;stroke-miterlimit:10;" d="M 247.863281 212.625 L 245.0625 191.507812 "/>
<path style="fill:none;stroke-width:1.2;stroke-linecap:butt;stroke-linejoin:miter;stroke:rgb(0%,0%,0%);stroke-opacity:1;stroke-miterlimit:10;" d="M 264.75 199.640625 L 247.863281 212.625 "/>
<path style="fill:none;stroke-width:1.2;stroke-linecap:butt;stroke-linejoin:miter;stroke:rgb(0%,0%,0%);stroke-opacity:1;stroke-miterlimit:10;" d="M 142.765625 149.238281 L 126.554688 135.417969 "/>
<path style="fill:none;stroke-width:1.2;stroke-linecap:butt;stroke-linejoin:miter;stroke:rgb(0%,0%,0%);stroke-opacity:1;stroke-miterlimit:10;" d="M 137.890625 151.667969 L 124.921875 140.613281 "/>
<path style="fill:none;stroke-width:1.2;stroke-linecap:butt;stroke-linejoin:miter;stroke:rgb(0%,0%,0%);stroke-opacity:1;stroke-miterlimit:10;" d="M 126.554688 135.417969 L 128.207031 114.179688 "/>
<path style="fill:none;stroke-width:1.2;stroke-linecap:butt;stroke-linejoin:miter;stroke:rgb(0%,0%,0%);stroke-opacity:1;stroke-miterlimit:10;" d="M 71.824219 151.410156 L 52.136719 143.277344 "/>
<path style="fill:none;stroke-width:1.2;stroke-linecap:butt;stroke-linejoin:miter;stroke:rgb(0%,0%,0%);stroke-opacity:1;stroke-miterlimit:10;" d="M 67.941406 155.230469 L 52.191406 148.722656 "/>
<path style="fill:none;stroke-width:1.2;stroke-linecap:butt;stroke-linejoin:miter;stroke:rgb(0%,0%,0%);stroke-opacity:1;stroke-miterlimit:10;" d="M 74.625 172.527344 L 71.824219 151.410156 "/>
<path style="fill:none;stroke-width:1.2;stroke-linecap:butt;stroke-linejoin:miter;stroke:rgb(0%,0%,0%);stroke-opacity:1;stroke-miterlimit:10;" d="M 52.136719 143.277344 L 35.25 156.257812 "/>
<path style="fill:none;stroke-width:1.2;stroke-linecap:butt;stroke-linejoin:miter;stroke:rgb(0%,0%,0%);stroke-opacity:1;stroke-miterlimit:10;" d="M 35.25 156.257812 L 38.050781 177.375 "/>
<path style="fill:none;stroke-width:1.2;stroke-linecap:butt;stroke-linejoin:miter;stroke:rgb(0%,0%,0%);stroke-opacity:1;stroke-miterlimit:10;" d="M 40.5 157.710938 L 42.738281 174.605469 "/>
<path style="fill:none;stroke-width:1.2;stroke-linecap:butt;stroke-linejoin:miter;stroke:rgb(0%,0%,0%);stroke-opacity:1;stroke-miterlimit:10;" d="M 38.050781 177.375 L 57.734375 185.511719 "/>
<path style="fill:none;stroke-width:1.2;stroke-linecap:butt;stroke-linejoin:miter;stroke:rgb(0%,0%,0%);stroke-opacity:1;stroke-miterlimit:10;" d="M 57.734375 185.511719 L 74.625 172.527344 "/>
<path style="fill:none;stroke-width:1.2;stroke-linecap:butt;stroke-linejoin:miter;stroke:rgb(0%,0%,0%);stroke-opacity:1;stroke-miterlimit:10;" d="M 56.371094 180.238281 L 69.882812 169.851562 "/>
</g>
</svg>

<svg xmlns="http://www.w3.org/2000/svg" xmlns:xlink="http://www.w3.org/1999/xlink" width="300pt" height="300pt" viewBox="0 0 300 300"><defs><symbol overflow="visible"><path d="M.453 1.594v-7.938h4.5v7.938zm.5-.5h3.5v-6.938h-3.5zm0 0"/></symbol><symbol overflow="visible" id="a"><path d="M3.547-5.953c-.65 0-1.164.242-1.547.72-.375.48-.563 1.13-.563 1.952 0 .835.188 1.49.563 1.967.383.48.898.72 1.547.72.644 0 1.156-.24 1.53-.72.376-.476.564-1.132.564-1.968 0-.822-.187-1.474-.562-1.954-.375-.477-.887-.72-1.53-.72zm0-.734c.914 0 1.648.312 2.203.937.55.617.828 1.438.828 2.47 0 1.042-.277 1.87-.828 2.483-.555.617-1.29.922-2.203.922-.93 0-1.668-.305-2.22-.922C.774-1.41.5-2.237.5-3.28c0-1.033.273-1.853.828-2.47.55-.625 1.29-.938 2.22-.938zm0 0"/></symbol><symbol overflow="visible" id="b"><path d="M.89-6.563H2.08l2.906 5.485v-5.484h.86V0H4.656L1.75-5.484V0H.89zm0 0"/></symbol><symbol overflow="visible" id="c"><path d="M.89-6.563h.876v2.688H5v-2.688h.89V0H5v-3.125H1.766V0H.89zm0 0"/></symbol><symbol overflow="visible"><path d="M.406 1.422V-5.64h4V1.42zM.844.97h3.11v-6.157H.843zm0 0"/></symbol><symbol overflow="visible" id="d"><path d="M3.688-5.016v2.172h2.17v.672H3.69V0H3.03v-2.172H.845v-.672H3.03v-2.172zm0 0"/></symbol></defs><g><path fill="#fff" d="M0 0h300v300H0z"/><path d="M83.43 117.64l1.402 10.56" stroke-width="1.2" stroke="#f00" stroke-miterlimit="10" fill="none"/><path d="M84.832 128.2l1.398 10.558" stroke-width="1.2" stroke="#000" stroke-miterlimit="10" fill="none"/><path d="M88.398 116.98l1.403 10.56" stroke-width="1.2" stroke="#f00" stroke-miterlimit="10" fill="none"/><path d="M89.8 127.54l1.4 10.558" stroke-width="1.2" stroke="#000" stroke-miterlimit="10" fill="none"/><path d="M81.914 111.813h8v11h-8zm0 0" fill="#fff"/><use xlink:href="#a" x="81.914" y="120.476" fill="#f00"/><path d="M88.715 138.43l19.687 8.132M88.715 138.43l-16.89 12.98M108.402 146.563l4.99 20.71M113.773 147.46l3.993 16.567M126.555 135.418l-18.153 11.144M113.39 167.273l10.622.825" stroke-width="1.2" stroke="#000" stroke-miterlimit="10" fill="none"/><path d="M124.012 168.098l10.617.828M134.63 168.926l12.983 16.887" stroke-width="1.2" stroke="#00f" stroke-miterlimit="10" fill="none"/><path d="M142.766 149.238l-4.07 9.844" stroke-width="1.2" stroke="#000" stroke-miterlimit="10" fill="none"/><path d="M138.695 159.082l-4.066 9.844" stroke-width="1.2" stroke="#00f" stroke-miterlimit="10" fill="none"/><path d="M131.63 163.426h7v11h-7zm0 0" fill="#fff"/><use xlink:href="#b" x="131.629" y="172.089" fill="#00f"/><path d="M147.613 185.813l10.56-1.4" stroke-width="1.2" stroke="#00f" stroke-miterlimit="10" fill="none"/><path d="M158.172 184.414l10.558-1.398" stroke-width="1.2" stroke="#000" stroke-miterlimit="10" fill="none"/><path d="M149.066 180.566l8.446-1.12" stroke-width="1.2" stroke="#00f" stroke-miterlimit="10" fill="none"/><path d="M157.512 179.445l8.45-1.12" stroke-width="1.2" stroke="#000" stroke-miterlimit="10" fill="none"/><path d="M144.613 180.313h7v11h-7zm0 0" fill="#fff"/><use xlink:href="#b" x="144.613" y="188.976" fill="#00f"/><path d="M168.73 183.016l4.067-9.844" stroke-width="1.2" stroke="#000" stroke-miterlimit="10" fill="none"/><path d="M172.797 173.172l4.066-9.844M176.863 163.328l-6.492-8.445" stroke-width="1.2" stroke="#00f" stroke-miterlimit="10" fill="none"/><path d="M170.37 154.883l-6.487-8.446" stroke-width="1.2" stroke="#000" stroke-miterlimit="10" fill="none"/><path d="M171.594 164.69l-5.196-6.752" stroke-width="1.2" stroke="#00f" stroke-miterlimit="10" fill="none"/><path d="M166.398 157.938l-5.19-6.754" stroke-width="1.2" stroke="#000" stroke-miterlimit="10" fill="none"/><path d="M166.863 155.828h21v15h-21zm0 0" fill="#fff"/><g fill="#00f"><use xlink:href="#b" x="166.863" y="167.93"/><use xlink:href="#c" x="173.841" y="167.93"/></g><use xlink:href="#d" x="180.855" y="163.047" fill="#00f"/><path d="M163.883 146.438l4.066-9.844" stroke-width="1.2" stroke="#000" stroke-miterlimit="10" fill="none"/><path d="M167.95 136.594l4.066-9.844" stroke-width="1.2" stroke="#00f" stroke-miterlimit="10" fill="none"/><path d="M163.883 146.438l-21.117 2.8" stroke-width="1.2" stroke="#000" stroke-miterlimit="10" fill="none"/><path d="M172.016 126.75l10.558-1.398" stroke-width="1.2" stroke="#00f" stroke-miterlimit="10" fill="none"/><path d="M182.574 125.352l10.56-1.4" stroke-width="1.2" stroke="#000" stroke-miterlimit="10" fill="none"/><path d="M165.016 121.25h14v11h-14zm0 0" fill="#fff"/><g fill="#00f"><use xlink:href="#b" x="165.016" y="129.913"/><use xlink:href="#c" x="171.993" y="129.913"/></g><path d="M193.133 123.953l12.984 16.887M198.406 122.586l10.387 13.512M201.27 104.266l-8.137 19.687M206.117 140.84l21.117-2.797M227.234 138.043l8.133-19.688M223.414 134.16l6.508-15.75M227.234 138.043l12.98 16.887M235.367 118.355l-12.98-16.89M222.387 101.465l-21.117 2.8M220.934 106.715l-16.895 2.238M201.27 104.266l-12.985-16.89M240.543 157.414l10.56-1.398" stroke-width="1.2" stroke="#000" stroke-miterlimit="10" fill="none"/><path d="M251.102 156.016l10.558-1.4" stroke-width="1.2" stroke="#f00" stroke-miterlimit="10" fill="none"/><path d="M239.887 152.445l10.558-1.398" stroke-width="1.2" stroke="#000" stroke-miterlimit="10" fill="none"/><path d="M250.445 151.047l10.56-1.4" stroke-width="1.2" stroke="#f00" stroke-miterlimit="10" fill="none"/><path d="M240.215 154.93l-4.067 9.843" stroke-width="1.2" stroke="#000" stroke-miterlimit="10" fill="none"/><path d="M236.148 164.773l-4.066 9.844" stroke-width="1.2" stroke="#00f" stroke-miterlimit="10" fill="none"/><path d="M257.332 146.633h8v11h-8zm0 0" fill="#fff"/><use xlink:href="#a" x="257.332" y="155.296" fill="#f00"/><path d="M232.082 174.617l6.488 8.446" stroke-width="1.2" stroke="#00f" stroke-miterlimit="10" fill="none"/><path d="M238.57 183.063l6.493 8.445" stroke-width="1.2" stroke="#000" stroke-miterlimit="10" fill="none"/><path d="M225.082 169.117h14v11h-14zm0 0" fill="#fff"/><g fill="#00f"><use xlink:href="#b" x="225.082" y="177.78"/><use xlink:href="#c" x="232.06" y="177.78"/></g><path d="M245.063 191.508l19.687 8.133M247.863 212.625l-2.8-21.117M264.75 199.64l-16.887 12.985M142.766 149.238l-16.21-13.82M137.89 151.668l-12.968-11.055M126.555 135.418l1.652-21.238M71.824 151.41l-19.687-8.133M67.94 155.23l-15.75-6.507M74.625 172.527l-2.8-21.117M52.137 143.277l-16.887 12.98M35.25 156.258l2.8 21.117M40.5 157.71l2.238 16.895M38.05 177.375l19.684 8.137M57.734 185.512l16.89-12.985M56.37 180.238l13.513-10.386" stroke-width="1.2" stroke="#000" stroke-miterlimit="10" fill="none"/></g></svg>
